svg/u1f31a.svg

<svg viewBox="0 0 128 128" xmlns="http://www.w3.org/2000/svg">
  <g>
    <radialGradient id="SVGID_1_" cx="63.5497" cy="56.074" gradientUnits="userSpaceOnUse" r="68.6716">
      <stop offset="0.3064" stop-color="#6092AB"/>
      <stop offset="0.4717" stop-color="#5989A1"/>
      <stop offset="0.7485" stop-color="#457287"/>
      <stop offset="0.8428" stop-color="#3D687D"/>
    </radialGradient>
    <circle cx="64" cy="64" fill="url(#SVGID_1_)" r="60"/>
    <radialGradient id="SVGID_2_" cx="63.7023" cy="50.1551" gradientUnits="userSpaceOnUse" r="85.6043">
      <stop offset="0.762" stop-color="#B2EBF2" stop-opacity="0"/>
      <stop offset="1" stop-color="#E0F7FA"/>
    </radialGradient>
    <circle cx="64" cy="64" fill="url(#SVGID_2_)" r="60"/>
    <g>
      <path d="M85.49,59.81c1.53,1.25,4.18,1.39,6.42,0.44c2.66-1.14,3.87-2.9,3.91-5.65 c0.04-3.41-2.8-7.05-8.42-7.41c-9.26-0.59-12.82,7.71-12.92,8.02c-0.22,0.65,0.1,1.58,1.95,0.12c5.63-4.45,7.65-3.71,7.65-3.71 S80.84,55.99,85.49,59.81z" fill="#212121"/>
      <path d="M43.26,59.81c1.53,1.25,4.18,1.39,6.42,0.44c2.66-1.14,3.87-2.9,3.91-5.65 c0.04-3.41-2.8-7.05-8.42-7.41c-9.26-0.59-12.82,7.71-12.92,8.02c-0.22,0.65,0.1,1.58,1.95,0.12c5.63-4.45,7.65-3.71,7.65-3.71 S38.61,55.99,43.26,59.81z" fill="#212121"/>
      <path d="M80.04,77.94l-0.12-0.07c-0.6-0.36-1.39-0.29-1.92,0.16c-1.57,1.34-8.08,3.82-14.01,3.94 c-5.93-0.12-12.44-2.6-14.01-3.94c-0.53-0.45-1.31-0.53-1.92-0.16l-0.12,0.07c-0.76,0.46-0.9,1.4-0.37,2.08 c2.06,2.58,7.52,6.46,16.41,6.59c8.89-0.12,14.34-4.01,16.41-6.59C80.95,79.34,80.8,78.4,80.04,77.94z" fill="#212121"/>
      <path d="M61.8,93.24c-0.72,0.21-1.57,0.75-1.39,1.48c0.06,0.24,0.22,0.43,0.4,0.6 c0.57,0.52,1.31,0.82,2.05,1.01c2.09,0.53,4.36,0.17,6.25-0.85c1.09-0.59,4.57-3.19,3.8-4.83c-0.62-1.33-3.01,0.52-3.94,0.91 C66.66,92.53,64.2,92.55,61.8,93.24z" fill="#274C5E"/>
      <path d="M58.68,72.26c-1.44-1.62-0.11-2.46,1.47-1.98c2,0.61,5.2,0.32,6.02-1.48 c1.58-3.46-0.39-5.41-2.84-11.39c-2.56-6.25,0.65-13.06,4.35-13.41c2.97-0.28,1.98,1.27,1.05,1.93c-1.82,1.3-3.73,5.6-0.8,10.42 c4.99,8.19,5.4,12.12,2.42,15.98C68.5,74.73,62.73,76.82,58.68,72.26z" fill="#274C5E"/>
      <g>
        <radialGradient id="SVGID_3_" cx="91.8924" cy="62.8423" gradientTransform="matrix(0.9201 -0.3918 0.3131 0.7354 -12.3332 52.6284)" gradientUnits="userSpaceOnUse" r="16.3698">
          <stop offset="0" stop-color="#FFFFFF"/>
          <stop offset="1" stop-color="#FFF9B9" stop-opacity="0"/>
        </radialGradient>
        <path d="M82.57,72.92c1.55,3.75,7.63,4.79,13.58,2.32c5.95-2.46,9.52-7.5,7.97-11.24 c-1.55-3.75-7.63-4.79-13.58-2.32C84.59,64.14,81.02,69.17,82.57,72.92z" fill="url(#SVGID_3_)" opacity="0.3"/>
        <radialGradient id="SVGID_4_" cx="-2357.1475" cy="63.1257" gradientTransform="matrix(-0.9201 -0.3918 -0.3131 0.7354 -2108.4888 -906.7669)" gradientUnits="userSpaceOnUse" r="16.1348">
          <stop offset="0" stop-color="#FFFFFF"/>
          <stop offset="1" stop-color="#FFF9B9" stop-opacity="0"/>
        </radialGradient>
        <path d="M49.43,72.92c-1.55,3.75-7.63,4.79-13.58,2.32c-5.95-2.46-9.52-7.5-7.97-11.24 c1.55-3.75,7.63-4.79,13.58-2.32C47.41,64.14,50.98,69.17,49.43,72.92z" fill="url(#SVGID_4_)" opacity="0.3"/>
      </g>
    </g>
  </g>
</svg>

<svg viewBox="0 0 128 128" xmlns="http://www.w3.org/2000/svg">
  <defs>
    <radialGradient id="SVGID_1_" cx="63.5497" cy="56.074" gradientUnits="userSpaceOnUse" r="68.6716">
      <stop offset="0.3064" stop-color="#6092AB"/>
      <stop offset="0.4717" stop-color="#5989A1"/>
      <stop offset="0.7485" stop-color="#457287"/>
      <stop offset="0.8428" stop-color="#3D687D"/>
    </radialGradient>
    <radialGradient id="SVGID_2_" cx="63.7023" cy="50.1551" gradientUnits="userSpaceOnUse" r="85.6043">
      <stop offset="0.762" stop-color="#B2EBF2" stop-opacity="0"/>
      <stop offset="1" stop-color="#E0F7FA"/>
    </radialGradient>
    <radialGradient id="SVGID_3_" cx="59.930263" cy="117.37811" gradientTransform="matrix(0.9201 -0.3918 0.3131 0.7354 0 0)" gradientUnits="userSpaceOnUse" r="16.3698">
      <stop offset="0" stop-color="#FFFFFF"/>
      <stop offset="1" stop-color="#FFF9B9" stop-opacity="0"/>
    </radialGradient>
    <radialGradient id="SVGID_4_" cx="-62.065587" cy="52.854002" gradientTransform="matrix(-0.9201 -0.3918 -0.3131 0.7354 0 0)" gradientUnits="userSpaceOnUse" r="16.1348">
      <stop offset="0" stop-color="#FFFFFF"/>
      <stop offset="1" stop-color="#FFF9B9" stop-opacity="0"/>
    </radialGradient>
  </defs>
  <path d="M124,64 A60 60 0 1 1 4,64 A60 60 0 1 1 124,64 Z" fill="url(#SVGID_1_)"/>
  <path d="M124,64 A60 60 0 1 1 4,64 A60 60 0 1 1 124,64 Z" fill="url(#SVGID_2_)"/>
  <path d="M85.49,59.81 C87.02,61.06 89.67,61.2 91.91,60.25 C94.57,59.11 95.78,57.35 95.82,54.6 C95.86,51.19 93.02,47.55 87.4,47.19 C78.14,46.6 74.58,54.9 74.48,55.21 C74.26,55.86 74.58,56.79 76.43,55.33 C82.06,50.88 84.08,51.62 84.08,51.62 C84.08,51.62 80.84,55.99 85.49,59.81 Z" fill="#212121"/>
  <path d="M43.26,59.81 C44.79,61.06 47.44,61.2 49.68,60.25 C52.34,59.11 53.55,57.35 53.59,54.6 C53.63,51.19 50.79,47.55 45.17,47.19 C35.91,46.6 32.35,54.9 32.25,55.21 C32.03,55.86 32.35,56.79 34.2,55.33 C39.83,50.88 41.85,51.62 41.85,51.62 C41.85,51.62 38.61,55.99 43.26,59.81 Z" fill="#212121"/>
  <path d="M80.04,77.94 L79.92,77.87 C79.32,77.51 78.53,77.58 78,78.03 C76.43,79.37 69.92,81.85 63.99,81.97 C58.06,81.85 51.55,79.37 49.98,78.03 C49.45,77.58 48.67,77.5 48.06,77.87 L47.94,77.94 C47.18,78.4 47.04,79.34 47.57,80.02 C49.63,82.6 55.09,86.48 63.98,86.61 C72.87,86.49 78.32,82.6 80.39,80.02 C80.95,79.34 80.8,78.4 80.04,77.94 Z" fill="#212121"/>
  <path d="M61.8,93.24 C61.08,93.45 60.23,93.99 60.41,94.72 C60.47,94.96 60.63,95.15 60.81,95.32 C61.38,95.84 62.12,96.14 62.86,96.33 C64.95,96.86 67.22,96.5 69.11,95.48 C70.2,94.89 73.68,92.29 72.91,90.65 C72.29,89.32 69.9,91.17 68.97,91.56 C66.66,92.53 64.2,92.55 61.8,93.24 Z" fill="#274C5E"/>
  <path d="M58.68,72.26 C57.24,70.64 58.57,69.8 60.15,70.28 C62.15,70.89 65.35,70.6 66.17,68.8 C67.75,65.34 65.78,63.39 63.33,57.41 C60.77,51.16 63.98,44.35 67.68,44 C70.65,43.72 69.66,45.27 68.73,45.93 C66.91,47.23 65,51.53 67.93,56.35 C72.92,64.54 73.33,68.47 70.35,72.33 C68.5,74.73 62.73,76.82 58.68,72.26 Z" fill="#274C5E"/>
  <path d="M82.57,72.92 C84.12,76.67 90.2,77.71 96.15,75.24 C102.1,72.78 105.67,67.74 104.12,64 C102.57,60.25 96.49,59.21 90.54,61.68 C84.59,64.14 81.02,69.17 82.57,72.92 Z" fill="url(#SVGID_3_)" opacity="0.3"/>
  <path d="M49.43,72.92 C47.88,76.67 41.8,77.71 35.85,75.24 C29.9,72.78 26.33,67.74 27.88,64 C29.43,60.25 35.51,59.21 41.46,61.68 C47.41,64.14 50.98,69.17 49.43,72.92 Z" fill="url(#SVGID_4_)" opacity="0.3"/>
</svg>
